X: 5
T: Folding Down the Sheets
R: reel
B: Fiddlers Fakebook p.110 #1
D: Bob Carlin "Melodic Clawhammer Banjo" Kicking Mule 209
M: 4/4
L: 1/8
K: D
"^A"[|]ag | "D"f2d2 "A"cdec | "D"d2F2  A2dc | "G"B2G2 "D"A2F2 | "A"EDEF "D"D2 :|
"^B"|: f2 | "A"edef    gfgf | "A"ece^g a2a2 |    c2a2 "G"B2g2 |1 "A7"f2fe "D"d2 :|2 "A7"f2e2 "D"d2 |]

